img/social-icons/youtube.svg

<svg width="28" height="28" viewBox="0 0 28 28" fill="none" xmlns="http://www.w3.org/2000/svg">
<path d="M10.8255 15.7733H9.73V21.6382H8.67067V15.7733H7.574V14.777H10.8267V15.7733H10.8255ZM17.1197 17.7812V20.5882C17.1197 21.2147 16.8863 21.7012 16.261 21.7012C15.9157 21.7012 15.6298 21.5752 15.3662 21.2485V21.637H14.4177V14.777H15.3662V16.9855C15.5797 16.7265 15.8667 16.513 16.2038 16.513C16.8922 16.513 17.1197 17.0952 17.1197 17.7812ZM16.1513 17.8383C16.1513 17.668 16.1198 17.5385 16.051 17.4498C15.9367 17.2993 15.7255 17.283 15.561 17.367L15.3662 17.521V20.6745L15.5878 20.853C15.7418 20.93 15.9658 20.9358 16.0697 20.8005C16.1233 20.7293 16.1502 20.6127 16.1502 20.4517V17.8383H16.1513ZM13.4132 11.0028C13.6803 11.0028 13.8262 10.7893 13.8262 10.5V8.02783C13.8262 7.73033 13.6967 7.5215 13.3933 7.5215C13.1168 7.5215 12.9815 7.73733 12.9815 8.02783V10.5C12.9827 10.78 13.1413 11.0028 13.4132 11.0028ZM12.558 20.4178C12.4425 20.5613 12.1882 20.797 12.0038 20.797C11.8032 20.797 11.753 20.6593 11.753 20.4563V16.5772H10.8138V20.8075C10.8138 21.8342 11.5103 21.84 12.0167 21.5495C12.2033 21.4422 12.3842 21.2847 12.558 21.0793V21.6382H13.4995V16.5772H12.558V20.4178ZM28 5.83333V22.1667C28 25.3878 25.389 28 22.1667 28H5.83333C2.61217 28 0 25.3878 0 22.1667V5.83333C0 2.61217 2.61217 0 5.83333 0H22.1667C25.389 0 28 2.61217 28 5.83333ZM15.673 10.9982C15.673 11.5232 15.8328 11.9467 16.3637 11.9467C16.6623 11.9467 17.0765 11.7915 17.5058 11.2828V11.8697H18.494V6.55667H17.5058V10.5898C17.3845 10.7403 17.1173 10.9877 16.9248 10.9877C16.7125 10.9877 16.6612 10.843 16.6612 10.6295V6.55667H15.673V10.9982ZM11.9665 7.94033V10.5455C11.9665 11.4823 12.4553 11.9688 13.4132 11.9688C14.2088 11.9688 14.8342 11.4368 14.8342 10.5455V7.94033C14.8342 7.1085 14.2147 6.51233 13.4132 6.51233C12.544 6.51233 11.9665 7.0875 11.9665 7.94033ZM8.28567 4.66667L9.60983 8.94833V11.8697H10.7217V8.94833L12.0167 4.66667H10.8862L10.1733 7.546L9.40567 4.66667H8.28567ZM21.777 18.2782C21.7607 14.8038 21.5063 13.4762 19.3142 13.3257C17.2912 13.188 10.7077 13.188 8.687 13.3257C6.49833 13.475 6.23933 14.798 6.22417 18.2782C6.2405 21.7525 6.496 23.0813 8.687 23.2307C10.7077 23.3683 17.2912 23.3683 19.3142 23.2307C21.504 23.0802 21.7607 21.7583 21.777 18.2782ZM20.5975 17.9375V19.2255H18.7985V20.1798C18.7985 20.559 18.83 20.888 19.2092 20.888C19.6058 20.888 19.6292 20.6208 19.6292 20.1798V19.8287H20.5975V20.209C20.5975 21.1843 20.1798 21.7747 19.1882 21.7747C18.2887 21.7747 17.8302 21.1202 17.8302 20.209V17.9375C17.8302 17.059 18.41 16.45 19.2593 16.45C20.1612 16.4488 20.5975 17.0228 20.5975 17.9375ZM19.6292 17.9282C19.6292 17.5863 19.5568 17.3355 19.2173 17.3355C18.8685 17.3355 18.7985 17.5805 18.7985 17.9282V18.4403H19.6292V17.9282Z" fill="#FAFAFA"/>
</svg>

<svg width="28" height="28" fill="none" xmlns="http://www.w3.org/2000/svg"><path d="M10.825 15.773H9.73v5.865H8.67v-5.865H7.575v-.996h3.253v.996h-.002zm6.295 2.008v2.807c0 .627-.234 1.113-.859 1.113-.345 0-.631-.126-.895-.453v.389h-.948v-6.86h.948v2.208c.214-.258.5-.472.838-.472.688 0 .916.582.916 1.268zm-.969.057c0-.17-.031-.3-.1-.388-.114-.15-.325-.167-.49-.083l-.195.154v3.153l.222.179c.154.077.378.083.482-.053.053-.07.08-.187.08-.348v-2.614h.001zm-2.738-6.835c.267 0 .413-.214.413-.503V8.028c0-.298-.13-.507-.433-.507-.276 0-.412.216-.412.507V10.5c.002.28.16.503.432.503zm-.855 9.415c-.115.143-.37.379-.554.379-.2 0-.251-.138-.251-.34v-3.88h-.94v4.23c0 1.027.697 1.033 1.204.742a2.08 2.08 0 00.541-.47v.56h.941v-5.062h-.941v3.84zM28 5.833v16.334A5.833 5.833 0 0122.167 28H5.833A5.834 5.834 0 010 22.167V5.833A5.834 5.834 0 015.833 0h16.334A5.833 5.833 0 0128 5.833zm-12.327 5.165c0 .525.16.949.69.949.3 0 .713-.155 1.143-.664v.587h.988V6.557h-.988v4.033c-.122.15-.389.398-.581.398-.213 0-.264-.145-.264-.358V6.556h-.988v4.441zM11.966 7.94v2.606c0 .936.49 1.423 1.447 1.423.796 0 1.421-.532 1.421-1.423V7.94c0-.832-.62-1.428-1.42-1.428-.87 0-1.447.576-1.447 1.428zm-3.68-3.273L9.61 8.948v2.922h1.112V8.948l1.295-4.281h-1.13l-.714 2.879-.767-2.88h-1.12zm13.491 13.611c-.016-3.474-.27-4.802-2.463-4.952-2.023-.138-8.606-.138-10.627 0-2.189.149-2.448 1.472-2.463 4.952.016 3.475.272 4.803 2.463 4.953 2.02.137 8.604.137 10.627 0 2.19-.15 2.447-1.473 2.463-4.953zm-1.18-.34v1.288h-1.799v.954c0 .379.032.708.411.708.397 0 .42-.267.42-.708v-.351h.968v.38c0 .975-.417 1.566-1.409 1.566-.9 0-1.358-.655-1.358-1.566v-2.271c0-.879.58-1.488 1.43-1.488.901-.001 1.337.573 1.337 1.488zm-.968-.01c0-.342-.072-.593-.412-.593-.348 0-.418.245-.418.593v.512h.83v-.512z" fill="#FAFAFA"/></svg>
